X: 559
T: Fiddler's Dram
C:Traditional
B: jims roots
M:4/4
L:1/8
Q: 1/4=100
K:D
V:1 
%Q:1/4=240
A2 B2 c2|:"D"d2A2 d2A2|"G"BcdB "D"AGFG|"G"A2Bc "D"dBAG|"A"FDEC "D"DEFA|
          "D"d2A2 d2A2|"G"BcdB "D"AGFG|"G"A2Bc "D"dBAG|"A"FDEC "D"D4 ||
"D"DEF2 DEFA | "A"EFED CA,B,C | "D"D2F2 GBAE | "A"CDEC "D"D4|
"D"DEF2 DEFA | "A"EFED CA,B,C | "D"D2F2 GBAE |" A"CDEC "D"DEFA :|
"D"D2 E-F D2 E-F | "A"EFED CA,B,C | "D"DEFG ABAD |"A"CDEC "D"D4|
"D"D2 E-F D2 E-F | "A"GFED CA,B,C | "D"DEFG ABAD |"A"CDEC "D"DEFA :|
% abcbook-tune_id 6298c25d790ef3f271fbfa8b


% abcbook-boost 0
% abcbook-tablature 
% abcbook-transpose 
% abcbook-lastupdated 1654178397942
% abcbook-soundfonts 
% abcbook-repeats 1


